; G-Code generated by Simplify3D(TM) Version 2.1.0
; dic. 16, 2016 at 10:26:21
; Settings Summary
;   processName,Prusa Hephestos
;   applyToModels,Cylinders_MinusPointThreeOffset
;   printMaterial,PLA
;   printQuality,Medium
;   extruderName,Extruder 1
;   extruderToolheadNumber,0
;   extruderDiameter,0.4
;   extruderAutoWidth,0
;   extruderWidth,0.4
;   extrusionMultiplier,1
;   extruderUseRetract,1
;   extruderRetractionDistance,1.5
;   extruderExtraRestartDistance,0
;   extruderRetractionZLift,0
;   extruderRetractionSpeed,4200
;   extruderUseCoasting,0
;   extruderCoastingDistance,0.2
;   extruderUseWipe,0
;   extruderWipeDistance,5
;   primaryExtruder,0
;   layerHeight,0.2
;   topSolidLayers,3
;   bottomSolidLayers,3
;   perimeterOutlines,2
;   printPerimetersInsideOut,1
;   startPointOption,2
;   startPointOriginX,0
;   startPointOriginY,0
;   startPointOriginZ,300
;   sequentialIslands,0
;   spiralVaseMode,0
;   firstLayerHeightRatio,0.9
;   firstLayerUnderspeed,0.5
;   useRaft,0
;   raftLayers,3
;   raftOffset,3
;   raftInfill,85
;   disableRaftBaseLayers,0
;   useSkirt,1
;   skirtLayers,1
;   skirtOutlines,2
;   skirtOffset,1
;   infillExtruder,0
;   externalInfillPattern,Rectilinear
;   infillPercentage,20
;   outlineOverlapPercentage,15
;   minInfillLength,5
;   infillLayerInterval,1
;   randomInfillStartPoint,0
;   infillAngles,45,-45
;   generateSupport,1
;   supportExtruder,0
;   supportInfill,30
;   supportExtraInflation,0
;   supportLayerInterval,1
;   supportHorizontalPartOffset,0.3
;   supportUpperSeparationLayers,1
;   supportLowerSeparationLayers,1
;   supportGridSpacing,4
;   maxOverhangAngle,45
;   supportAngles,0
;   temperatureName,Extruder 1 Temperature
;   temperatureNumber,0
;   temperatureSetpointCount,2
;   temperatureSetpointLayers,1,2
;   temperatureSetpointTemperatures,215,210
;   temperatureStabilizeAtStartup,1
;   temperatureHeatedBed,0
;   temperatureRelayBetweenLayers,0
;   temperatureRelayBetweenLoops,0
;   fanLayers,1,2
;   fanSpeeds,0,100
;   blipFanToFullPower,0
;   adjustSpeedForCooling,1
;   minSpeedLayerTime,15
;   minCoolingSpeedSlowdown,20
;   increaseFanForCooling,0
;   minFanLayerTime,45
;   maxCoolingFanSpeed,100
;   increaseFanForBridging,0
;   bridgingFanSpeed,100
;   use5D,1
;   relativeEdistances,0
;   allowEaxisZeroing,1
;   includeM10123,0
;   stickySupport,1
;   detectArcs,0
;   arcReplaceG2G3,0
;   arcRadialCompensation,1
;   gcodeXoffset,0
;   gcodeYoffset,0
;   gcodeZoffset,0
;   overrideMachineDefinition,0
;   machineTypeOverride,0
;   strokeXoverride,200
;   strokeYoverride,200
;   strokeZoverride,180
;   originOffsetXoverride,0
;   originOffsetYoverride,0
;   originOffsetZoverride,0
;   homeXdirOverride,-1
;   homeYdirOverride,-1
;   homeZdirOverride,-1
;   flipXoverride,1
;   flipYoverride,-1
;   flipZoverride,1
;   startingGcode,; -- START GCODE --,G21        ;metric values,G90        ;absolute positioning,M107       ;start with the fan off,G28 X0 Y0  ;move X/Y to min endstops,G28 Z0     ;move Z to min endstops,G1 Z15.0 F1200 ;move the platform down 15mm,G92 E0                  ;zero the extruded length,G1 F200 E15              ;extrude 5mm of feed stock,G92 E0                  ;zero the extruded length again,G28 Z0     ;move Z to min endstops,G1 F{travel_speed},;M301 P17.44 I1.07 D71.17 ;set the pid for 200 PLA,M301 P15.07 I0.92 D61.50,;M97 A0.5 W1.0 P180,
;   layerChangeGcode,
;   toolChangeGcode,
;   endingGcode,; -- END GCODE --,M104 S0                     ;extruder heater off,M140 S0                     ;heated bed heater off (if you have it),G90,G1 E-5 F300                            ;retract the filament a bit before lifting the nozzle, to release some of the pressure,G91                                    ;relative positioning,G1 Z10 F{travel_speed} ;move Z up a bit and retract filament even more,G90,G28 X0 Y0                              ;move X/Y to min endstops so the head is out of the way,,M107       ;shut down the blower fan off,,;zelda_storms,M300 S2349 P166,M300 S2793 P166,M300 S4698 P333,M300 S0 P333,M300 S2349 P166,M300 S2793 P166,M300 S4698 P333,M300 S0 P333,M300 S5274 P333,M300 S0 P166,M300 S5587 P166,M300 S5274 P166,M300 S5587 P166,M300 S5274 P166,M300 S4186 P166,M300 S1760 P333,M300 S0 P166,M300 S1760 P333,M300 S2349 P333,M300 S2793 P166,M300 S3135 P166,M300 S1760 P666,M300 S0 P166,M300 S1760 P333,M300 S2349 P333,M300 S2793 P166,M300 S3135 P166,M300 S2637 P666,M300 S0 P166,M300 S2349 P166,M300 S2793 P166,M300 S4698 P333,M300 S0 P333,M300 S2349 P166,M300 S2793 P166,M300 S4698 P333,M300 S0 P333,M300 S5274 P333,M300 S0 P166,M300 S5587 P166,M300 S5274 P166,M300 S5587 P166,M300 S5274 P166,M300 S4186 P166,M300 S1760 P333,M300 S0 P166,M300 S1760 P333,M300 S2349 P333,M300 S2793 P166,M300 S3135 P166,M300 S1760 P333,M300 S0 P166,M300 S1760 P333,M300 S2349 P1333,,,
;   createX3G,0
;   celebration,0
;   celebrationSong,Random Song
;   postProcessing,
;   defaultSpeed,4800
;   outlineUnderspeed,0.5
;   supportUnderspeed,0.6
;   rapidXYspeed,6000
;   rapidZspeed,1002
;   minBridgingArea,50
;   bridgingExtrusionMultiplier,1
;   bridgingSpeedMultiplier,1
;   filamentDiameter,1.75
;   useMinPrintHeight,0
;   minPrintHeight,0
;   useMaxPrintHeight,0
;   maxPrintHeight,0
;   overlapRemoval,0
;   overlapRemovalPercentage,0.3
;   useDiaphragm,0
;   diaphragmLayerInterval,20
;   robustSlicing,1
;   mergeAllIntoSolid,0
;   onlyRetractWhenCrossingOutline,1
;   retractBetweenLayers,1
;   useRetractionMinTravel,0
;   retractionMinTravel,3
;   useRetractionOozeRate,0
;   retractionOozeRate,100
;   onlyWipeOutlines,1
G90 ; use absolute coordinates
M82 ; absolute extrusion distances
G21 ; set units to millimeters
M106 S0
M104 S215 T0
M109 S215 T0
; -- START GCODE --
G21        ;metric values
G90        ;absolute positioning
M107       ;start with the fan off
G28 X0 Y0  ;move X/Y to min endstops
G28 Z0     ;move Z to min endstops
G1 Z15.0 F1200 ;move the platform down 15mm
G92 E0                  ;zero the extruded length
G1 F200 E15              ;extrude 5mm of feed stock
G92 E0                  ;zero the extruded length again
G28 Z0     ;move Z to min endstops
G1 F{travel_speed}
;M301 P17.44 I1.07 D71.17 ;set the pid for 200 PLA
M301 P15.07 I0.92 D61.50
;M97 A0.5 W1.0 P180

G92 E0
G1 E-1.5 F4200
; layer 1, Z = 0.18
T0
; tool H0.2 W0.4
G0 X90.752 Y100.621 F6000
G0 Z0.18 F1002
G1 E0 F1260
G92 E0
G1 X91.313 Y100.139 E0.0246 F2400
G1 X91.691 Y99.875 E0.0399
G1 X92.344 Y99.507 E0.0649
G1 X92.766 Y99.323 E0.0802
G1 X93.479 Y99.091 E0.1051
G1 X93.929 Y98.993 E0.1204
G1 X94.673 Y98.907 E0.1454
G1 X95.135 Y98.9 E0.1607
G1 X95.218 Y98.907 E0.1635
G1 X95.881 Y98.962 E0.1856
G1 X96.334 Y99.046 E0.2009
G1 X97.054 Y99.254 E0.2259
G1 X97.481 Y99.425 E0.2412
G1 X98.146 Y99.771 E0.2661
G1 X98.532 Y100.023 E0.2814
G1 X99.116 Y100.494 E0.3064
G1 X99.449 Y100.824 E0.322
G1 X99.922 Y101.392 E0.3466
G1 X100.178 Y101.77 E0.3618
G1 X100.537 Y102.433 E0.3868
G1 X100.715 Y102.859 E0.4022
G1 X100.942 Y103.6 E0.428
G1 X101.07 Y104.37 E0.4539
G1 X101.101 Y104.83 E0.4693
G1 X101.075 Y105.605 E0.495
G1 X100.946 Y106.374 E0.521
G1 X100.834 Y106.79 E0.5353
G1 X100.692 Y107.201 E0.5498
G1 X100.369 Y107.905 E0.5755
G1 X99.953 Y108.565 E0.6015
G1 X99.688 Y108.906 E0.6158
G1 X99.393 Y109.236 E0.6306
G1 X98.829 Y109.754 E0.656
G1 X98.191 Y110.202 E0.682
G1 X97.793 Y110.426 E0.6972
G1 X97.102 Y110.729 E0.7223
G1 X96.663 Y110.871 E0.7376
G1 X95.906 Y111.036 E0.7634
G1 X95.129 Y111.1 E0.7893
G1 X94.697 Y111.093 E0.8037
G1 X94.256 Y111.056 E0.8184
G1 X93.528 Y110.921 E0.843
G1 X93.109 Y110.8 E0.8575
G1 X92.698 Y110.65 E0.8721
G1 X92.031 Y110.33 E0.8967
G1 X91.642 Y110.094 E0.9118
G1 X91.038 Y109.639 E0.937
G1 X90.694 Y109.321 E0.9526
G1 X90.201 Y108.767 E0.9772
G1 X89.926 Y108.387 E0.9928
G1 X89.54 Y107.725 E1.0183
G1 X89.228 Y106.982 E1.0451
G1 X89.024 Y106.228 E1.0711
G1 X88.949 Y105.773 E1.0864
G1 X88.899 Y105.026 E1.1113
G1 X88.915 Y104.57 E1.1265
G1 X89.014 Y103.821 E1.1516
G1 X89.123 Y103.365 E1.1672
G1 X89.364 Y102.666 E1.1918
G1 X89.554 Y102.251 E1.207
G1 X89.934 Y101.601 E1.232
G1 X90.188 Y101.251 E1.2464
G1 X90.456 Y100.931 E1.2603
G1 X90.752 Y100.621 E1.2745
G92 E0
G1 E-1.5 F4200
G0 X101.518 Y103.797 F6000
G1 E0 F4200
G92 E0
G1 X101.721 Y103.044 E0.0259 F2400
G1 X101.875 Y102.64 E0.0403
G1 X102.061 Y102.238 E0.055
G1 X102.434 Y101.6 E0.0796
G1 X102.702 Y101.231 E0.0948
G1 X103.204 Y100.668 E0.1199
G1 X103.539 Y100.359 E0.135
G1 X104.142 Y99.906 E0.1601
G1 X104.532 Y99.669 E0.1753
G1 X105.212 Y99.344 E0.2004
G1 X105.646 Y99.187 E0.2157
G1 X106.372 Y99.004 E0.2406
G1 X106.823 Y98.936 E0.2558
G1 X107.601 Y98.897 E0.2817
G1 X107.71 Y98.906 E0.2853
G1 X108.38 Y98.962 E0.3077
G1 X108.803 Y99.04 E0.322
G1 X109.219 Y99.145 E0.3363
G1 X109.93 Y99.402 E0.3614
G1 X110.352 Y99.606 E0.377
G1 X111.007 Y100.004 E0.4025
G1 X111.614 Y100.493 E0.4284
G1 X111.94 Y100.813 E0.4436
G1 X112.422 Y101.392 E0.4687
G1 X112.664 Y101.749 E0.483
G1 X112.883 Y102.124 E0.4975
G1 X113.195 Y102.806 E0.5224
G1 X113.346 Y103.25 E0.538
G1 X113.515 Y103.97 E0.5626
G1 X113.576 Y104.422 E0.5778
G1 X113.601 Y105.177 E0.6029
G1 X113.568 Y105.645 E0.6185
G1 X113.446 Y106.377 E0.6432
G1 X113.322 Y106.828 E0.6588
G1 X113.058 Y107.521 E0.6834
G1 X112.848 Y107.94 E0.699
G1 X112.453 Y108.566 E0.7236
G1 X112.173 Y108.925 E0.7388
G1 X111.653 Y109.471 E0.7638
G1 X111.307 Y109.769 E0.779
G1 X110.691 Y110.202 E0.8041
G1 X110.293 Y110.426 E0.8193
G1 X109.602 Y110.729 E0.8444
G1 X109.163 Y110.871 E0.8597
G1 X108.406 Y111.036 E0.8855
G1 X107.629 Y111.1 E0.9114
G1 X107.197 Y111.093 E0.9258
G1 X106.756 Y111.056 E0.9405
G1 X106.028 Y110.921 E0.9651
G1 X105.609 Y110.8 E0.9796
G1 X105.198 Y110.65 E0.9942
G1 X104.531 Y110.33 E1.0188
G1 X104.142 Y110.094 E1.0339
G1 X103.538 Y109.639 E1.0591
G1 X103.194 Y109.321 E1.0747
G1 X102.702 Y108.768 E1.0993
G1 X102.448 Y108.419 E1.1136
G1 X102.214 Y108.044 E1.1283
G1 X101.883 Y107.382 E1.153
G1 X101.72 Y106.951 E1.1683
G1 X101.524 Y106.228 E1.1932
G1 X101.449 Y105.773 E1.2085
G1 X101.399 Y105.025 E1.2334
G1 X101.415 Y104.565 E1.2488
G1 X101.518 Y103.797 E1.2745
G92 E0
G1 E-1.5 F4200
G0 X113.915 Y104.57 F6000
G1 E0 F4200
G92 E0
G1 X114.017 Y103.797 E0.026 F2400
G1 X114.221 Y103.044 E0.0519
G1 X114.374 Y102.642 E0.0662
G1 X114.554 Y102.251 E0.0805
G1 X114.947 Y101.578 E0.1064
G1 X115.424 Y100.965 E0.1323
G1 X115.723 Y100.651 E0.1467
G1 X116.039 Y100.359 E0.161
G1 X116.663 Y99.891 E0.1869
G1 X117.332 Y99.514 E0.2125
G1 X117.735 Y99.336 E0.2271
G1 X118.141 Y99.189 E0.2415
G1 X118.872 Y99.004 E0.2666
G1 X119.323 Y98.936 E0.2817
G1 X119.847 Y98.91 E0.2992
G1 X120.062 Y98.899 E0.3063
G1 X120.503 Y98.92 E0.3211
G1 X120.921 Y98.968 E0.335
G1 X121.47 Y99.08 E0.3537
G1 X122.084 Y99.263 E0.375
G1 X122.789 Y99.572 E0.4006
G1 X123.19 Y99.798 E0.4159
G1 X123.808 Y100.231 E0.441
G1 X124.13 Y100.509 E0.4551
G1 X124.439 Y100.812 E0.4696
G1 X124.939 Y101.412 E0.4955
G1 X125.349 Y102.062 E0.5211
G1 X125.558 Y102.479 E0.5366
G1 X125.826 Y103.181 E0.5616
G1 X125.939 Y103.6 E0.576
G1 X126.024 Y104.022 E0.5903
G1 X126.098 Y104.768 E0.6153
G1 X126.099 Y105.227 E0.6305
G1 X126.026 Y105.966 E0.6552
G1 X125.935 Y106.424 E0.6708
G1 X125.705 Y107.172 E0.6968
G1 X125.369 Y107.905 E0.7236
G1 X124.939 Y108.587 E0.7504
G1 X124.448 Y109.178 E0.776
G1 X124.116 Y109.506 E0.7915
G1 X123.531 Y109.977 E0.8165
G1 X123.146 Y110.229 E0.8318
G1 X122.48 Y110.575 E0.8567
G1 X122.053 Y110.746 E0.872
G1 X121.303 Y110.963 E0.898
G1 X120.536 Y111.078 E0.9238
G1 X120.103 Y111.1 E0.9382
G1 X119.672 Y111.093 E0.9526
G1 X118.924 Y111.006 E0.9776
G1 X118.478 Y110.909 E0.9928
G1 X117.736 Y110.667 E1.0188
G1 X117.035 Y110.332 E1.0446
G1 X116.642 Y110.094 E1.0599
G1 X116.039 Y109.641 E1.085
G1 X115.704 Y109.332 E1.1001
G1 X115.21 Y108.778 E1.1248
G1 X114.935 Y108.401 E1.1403
G1 X114.56 Y107.76 E1.165
G1 X114.375 Y107.36 E1.1797
G1 X114.221 Y106.956 E1.1941
G1 X114.017 Y106.203 E1.22
G1 X113.915 Y105.43 E1.246
G1 X113.9 Y105 E1.2603
G1 X113.915 Y104.57 E1.2746
G0 X114.314 Y104.603 F6000
G92 E0
G1 X114.41 Y103.876 E0.0244 F2400
G1 X114.602 Y103.168 E0.0488
G1 X114.744 Y102.797 E0.062
G1 X114.909 Y102.436 E0.0752
G1 X115.279 Y101.803 E0.0996
G1 X115.728 Y101.226 E0.1239
G1 X116.003 Y100.936 E0.1372
G1 X116.296 Y100.667 E0.1504
G1 X116.882 Y100.226 E0.1748
G1 X117.511 Y99.872 E0.1988
G1 X117.884 Y99.707 E0.2124
G1 X118.258 Y99.572 E0.2256
G1 X118.95 Y99.396 E0.2494
G1 X119.363 Y99.335 E0.2633
G1 X119.867 Y99.309 E0.28
G1 X120.062 Y99.299 E0.2866
G1 X120.471 Y99.319 E0.3002
G1 X120.858 Y99.364 E0.3131
G1 X121.372 Y99.469 E0.3306
G1 X121.946 Y99.64 E0.3505
G1 X122.61 Y99.931 E0.3746
G1 X122.977 Y100.137 E0.3886
G1 X123.562 Y100.547 E0.4124
G1 X123.859 Y100.803 E0.4254
G1 X124.145 Y101.084 E0.4387
G1 X124.615 Y101.648 E0.4631
G1 X125 Y102.259 E0.4872
G1 X125.192 Y102.641 E0.5014
G1 X125.445 Y103.305 E0.525
G1 X125.55 Y103.692 E0.5384
G1 X125.628 Y104.081 E0.5516
G1 X125.698 Y104.788 E0.5752
G1 X125.699 Y105.208 E0.5892
G1 X125.63 Y105.907 E0.6125
G1 X125.546 Y106.326 E0.6267
G1 X125.331 Y107.029 E0.6512
G1 X125.017 Y107.714 E0.6763
G1 X124.615 Y108.352 E0.7013
G1 X124.153 Y108.907 E0.7253
G1 X123.849 Y109.207 E0.7396
G1 X123.295 Y109.653 E0.7632
G1 X122.944 Y109.883 E0.7772
G1 X122.313 Y110.211 E0.8008
G1 X121.923 Y110.368 E0.8148
G1 X121.218 Y110.571 E0.8392
G1 X120.496 Y110.68 E0.8635
G1 X120.096 Y110.7 E0.8768
G1 X119.699 Y110.693 E0.89
G1 X118.99 Y110.611 E0.9138
G1 X118.582 Y110.522 E0.9276
G1 X117.885 Y110.295 E0.952
G1 X117.226 Y109.98 E0.9763
G1 X116.867 Y109.762 E0.9903
G1 X116.296 Y109.333 E1.0141
G1 X115.989 Y109.051 E1.0279
G1 X115.522 Y108.527 E1.0513
G1 X115.27 Y108.182 E1.0655
G1 X114.915 Y107.575 E1.0889
G1 X114.744 Y107.205 E1.1024
G1 X114.602 Y106.832 E1.1157
G1 X114.41 Y106.124 E1.1401
G1 X114.314 Y105.397 E1.1645
G1 X114.301 Y105 E1.1777
G1 X114.314 Y104.603 E1.1909
G0 X113.176 Y104.455 F6000
G92 E0
G1 X113.2 Y105.17 E0.0238 F2400
G1 X113.171 Y105.598 E0.0381
G1 X113.055 Y106.291 E0.0614
G1 X112.942 Y106.704 E0.0757
G1 X112.691 Y107.36 E0.099
G1 X112.499 Y107.743 E0.1133
G1 X112.125 Y108.335 E0.1366
G1 X111.869 Y108.664 E0.1504
G1 X111.377 Y109.181 E0.1742
G1 X111.061 Y109.453 E0.188
G1 X110.477 Y109.863 E0.2118
G1 X110.114 Y110.067 E0.2256
G1 X109.459 Y110.355 E0.2494
G1 X109.059 Y110.484 E0.2634
G1 X108.347 Y110.64 E0.2877
G1 X107.615 Y110.7 E0.3121
G1 X107.217 Y110.694 E0.3253
G1 X106.809 Y110.659 E0.3389
G1 X106.12 Y110.531 E0.3622
G1 X105.733 Y110.419 E0.3756
G1 X105.354 Y110.281 E0.3891
G1 X104.722 Y109.978 E0.4124
G1 X104.366 Y109.762 E0.4262
G1 X103.794 Y109.332 E0.45
G1 X103.48 Y109.041 E0.4643
G1 X103.014 Y108.517 E0.4876
G1 X102.78 Y108.195 E0.5008
G1 X102.563 Y107.849 E0.5144
G1 X102.25 Y107.221 E0.5377
G1 X102.101 Y106.827 E0.5517
G1 X101.916 Y106.143 E0.5753
G1 X101.847 Y105.727 E0.5893
G1 X101.8 Y105.019 E0.6129
G1 X101.814 Y104.598 E0.627
G1 X101.911 Y103.876 E0.6512
G1 X102.102 Y103.168 E0.6756
G1 X102.244 Y102.795 E0.6888
G1 X102.416 Y102.424 E0.7025
G1 X102.77 Y101.819 E0.7258
G1 X103.014 Y101.482 E0.7396
G1 X103.489 Y100.949 E0.7633
G1 X103.796 Y100.667 E0.7772
G1 X104.366 Y100.238 E0.801
G1 X104.722 Y100.022 E0.8148
G1 X105.367 Y99.713 E0.8386
G1 X105.763 Y99.57 E0.8526
G1 X106.451 Y99.396 E0.8762
G1 X106.863 Y99.335 E0.89
G1 X107.595 Y99.298 E0.9144
G1 X107.677 Y99.305 E0.9172
G1 X108.327 Y99.359 E0.9388
G1 X108.717 Y99.431 E0.952
G1 X109.102 Y99.528 E0.9652
G1 X109.775 Y99.771 E0.989
G1 X110.161 Y99.958 E1.0033
G1 X110.777 Y100.332 E1.0273
G1 X111.348 Y100.792 E1.0517
G1 X111.645 Y101.084 E1.0655
